;FLAVOR:Marlin
;TIME:7429
;Filament used: 5.08712m
;Layer height: 0.2
;MINX:65.169
;MINY:68.86
;MINZ:0.3
;MAXX:154.831
;MAXY:151.14
;MAXZ:12.1
;Generated with Cura_SteamEngine 4.2.1
M140 S60
M105
M190 S60
M104 S200
M105
M109 S200
M82 ;absolute extrusion mode
M201 X500.00 Y500.00 Z100.00 E5000.00 ;Setup machine max acceleration
M203 X500.00 Y500.00 Z10.00 E50.00 ;Setup machine max feedrate
M204 P500.00 R1000.00 T500.00 ;Setup Print/Retract/Travel acceleration
M205 X8.00 Y8.00 Z0.40 E5.00 ;Setup Jerk
M220 S100 ;Reset Feedrate
M221 S100 ;Reset Flowrate

G28 ;Home

G92 E0 ;Reset Extruder
G1 Z2.0 F3000 ;Move Z Axis up
G1 X10.1 Y20 Z0.28 F5000.0 ;Move to start position
G1 X10.1 Y200.0 Z0.28 F1500.0 E15 ;Draw the first line
G1 X10.4 Y200.0 Z0.28 F5000.0 ;Move to side a little
G1 X10.4 Y20 Z0.28 F1500.0 E30 ;Draw the second line
G92 E0 ;Reset Extruder
G1 Z2.0 F3000 ;Move Z Axis up

G92 E0
G92 E0
G1 F2700 E-5
;LAYER_COUNT:59
;LAYER:0
M107
G0 F6000 X101.301 Y102.752 Z0.3
;TYPE:SKIRT
G1 F2700 E0
G1 F1200 X100.729 Y103.382 E0.0467
G1 X100.22 Y104.048 E0.0927
G1 X99.761 Y104.763 E0.13933
G1 X99.361 Y105.511 E0.18588
G1 X99.024 Y106.29 E0.23246
G1 X98.762 Y107.068 E0.27751
G1 X98.551 Y107.908 E0.32504
G1 X98.416 Y108.731 E0.37081
G1 X98.347 Y109.57 E0.41701
G1 X98.347 Y110.431 E0.46426
G1 X98.416 Y111.27 E0.51046
G1 X98.552 Y112.1 E0.55662
G1 X98.756 Y112.911 E0.60251
G1 X99.028 Y113.718 E0.64925
G1 X99.361 Y114.489 E0.69534
G1 X99.761 Y115.237 E0.74189
G1 X100.218 Y115.948 E0.78827
G1 X100.729 Y116.618 E0.83451
G1 X101.301 Y117.248 E0.88121
G1 X101.92 Y117.83 E0.92784
G1 X102.572 Y118.351 E0.97364
G1 X103.29 Y118.833 E1.0211
G1 X104.01 Y119.235 E1.06635
G1 X104.776 Y119.584 E1.11255
G1 X105.588 Y119.877 E1.15992
G1 X106.415 Y120.101 E1.20694
G1 X107.219 Y120.248 E1.2518
G1 X108.069 Y120.335 E1.29869
G1 X108.901 Y120.351 E1.34436
G1 X109.755 Y120.298 E1.39131
G1 X110.578 Y120.178 E1.43696
G1 X111.423 Y119.986 E1.48451
G1 X112.219 Y119.734 E1.53033
G1 X113.008 Y119.409 E1.57716
G1 X113.766 Y119.025 E1.62379
G1 X114.464 Y118.594 E1.66881
G1 X115.158 Y118.084 E1.71608
G1 X115.8 Y117.528 E1.76269
G1 X116.391 Y116.923 E1.8091
G1 X116.922 Y116.28 E1.85487
G1 X117.406 Y115.59 E1.90112
G1 X117.837 Y114.851 E1.94807
G1 X118.341 Y113.801 E2.01199
G1 X118.556 Y113.384 E2.03773
G1 X118.838 Y112.874 E2.06972
G1 X119.263 Y112.188 E2.114
G1 X119.696 Y111.617 E2.15333
G1 X120.065 Y111.172 E2.18505
G1 X120.61 Y110.577 E2.22934
G1 X121.188 Y110.059 E2.27193
G1 X121.258 Y110.002 E2.27688
G1 X120.646 Y109.458 E2.32182
G1 X120.123 Y108.894 E2.36403
G1 X119.747 Y108.448 E2.39605
G1 X119.258 Y107.806 E2.44033
G1 X118.853 Y107.152 E2.48255
G1 X118.566 Y106.635 E2.515
G1 X118.344 Y106.204 E2.54161
G1 X117.843 Y105.16 E2.60516
G1 X117.406 Y104.41 E2.65279
G1 X116.919 Y103.716 E2.69932
G1 X116.391 Y103.077 E2.74481
G1 X115.799 Y102.471 E2.7913
G1 X115.152 Y101.911 E2.83826
G1 X114.471 Y101.41 E2.88466
G1 X113.766 Y100.975 E2.93012
G1 X113.001 Y100.587 E2.9772
G1 X112.237 Y100.274 E3.02251
G1 X111.403 Y100.009 E3.07053
G1 X110.575 Y99.819 E3.11715
G1 X109.766 Y99.703 E3.162
G1 X108.901 Y99.649 E3.20957
G1 X108.069 Y99.665 E3.25523
G1 X107.226 Y99.751 E3.30174
G1 X106.416 Y99.901 E3.34694
G1 X105.581 Y100.125 E3.39439
G1 X104.776 Y100.415 E3.44135
G1 X104.017 Y100.762 E3.48715
G1 X103.285 Y101.171 E3.53316
G1 X102.573 Y101.649 E3.58023
G1 X101.919 Y102.17 E3.62611
G1 X101.301 Y102.752 E3.6727
G0 F6000 X100.984 Y102.446
G1 F1200 X100.398 Y103.092 E3.72057
G1 X99.857 Y103.801 E3.76951
G1 X99.379 Y104.544 E3.81799
G1 X98.964 Y105.32 E3.86629
G1 X98.618 Y106.12 E3.91412
G1 X98.336 Y106.956 E3.96254
G1 X98.121 Y107.813 E4.01103
G1 X97.977 Y108.686 E4.05959
G1 X97.907 Y109.546 E4.10694
G1 X97.907 Y110.449 E4.15649
G1 X97.977 Y111.315 E4.20417
G1 X98.12 Y112.183 E4.25245
G1 X98.336 Y113.043 E4.30111
G1 X98.618 Y113.881 E4.34964
G1 X98.964 Y114.68 E4.39742
G1 X99.379 Y115.456 E4.44571
G1 X99.857 Y116.199 E4.4942
G1 X100.398 Y116.908 E4.54314
G1 X100.984 Y117.554 E4.59101
G1 X101.629 Y118.161 E4.63961
G1 X102.316 Y118.709 E4.68784
G1 X103.054 Y119.205 E4.73664
G1 X103.809 Y119.627 E4.78411
G1 X104.616 Y119.994 E4.83276
G1 X105.459 Y120.298 E4.88194
G1 X106.316 Y120.531 E4.93068
G1 X107.146 Y120.682 E4.97697
G1 X108.053 Y120.774 E5.027
G1 X108.908 Y120.791 E5.07393
G1 X109.795 Y120.736 E5.12271
G1 X110.662 Y120.61 E5.17079
G1 X111.536 Y120.411 E5.21998
G1 X112.377 Y120.145 E5.26839
G1 X113.184 Y119.813 E5.31627
G1 X113.99 Y119.404 E5.36588
G1 X114.712 Y118.959 E5.41242
G1 X115.43 Y118.431 E5.46133
G1 X116.098 Y117.852 E5.50984
G1 X116.717 Y117.218 E5.55847
G1 X117.275 Y116.543 E5.60653
G1 X117.778 Y115.827 E5.65455
G1 X118.227 Y115.057 E5.70347
G1 X118.738 Y113.991 E5.76835
G1 X118.942 Y113.597 E5.79269
G1 X119.224 Y113.087 E5.82468
G1 X119.638 Y112.421 E5.86771
G1 X120.035 Y111.898 E5.90375
G1 X120.404 Y111.453 E5.93547
G1 X120.935 Y110.875 E5.97855
G1 X121.466 Y110.4 E6.01764
G1 X121.915 Y110.034 E6.04943
G1 X121.96 Y110.001 E6.0525
G1 X121.525 Y109.651 E6.08314
G1 X120.939 Y109.129 E6.12621
G1 X120.459 Y108.61 E6.165
G1 X120.083 Y108.164 E6.19701
G1 X119.608 Y107.539 E6.2401
G1 X119.238 Y106.938 E6.27883
G1 X118.951 Y106.421 E6.31128
G1 X118.74 Y106.014 E6.33644
G1 X118.227 Y104.945 E6.40151
G1 X117.777 Y104.173 E6.45055
G1 X117.272 Y103.453 E6.49881
G1 X116.717 Y102.782 E6.5466
G1 X116.097 Y102.147 E6.5953
G1 X115.432 Y101.57 E6.64362
G1 X114.711 Y101.04 E6.69273
G1 X113.99 Y100.596 E6.7392
G1 X113.181 Y100.185 E6.789
G1 X112.381 Y99.857 E6.83645
G1 X111.522 Y99.585 E6.88589
G1 X110.666 Y99.388 E6.9341
G1 X109.805 Y99.265 E6.98183
G1 X108.908 Y99.209 E7.03115
G1 X108.053 Y99.226 E7.07808
G1 X107.15 Y99.317 E7.12789
G1 X106.319 Y99.471 E7.17427
G1 X105.452 Y99.704 E7.22354
G1 X104.616 Y100.005 E7.2723
G1 X103.812 Y100.372 E7.3208
G1 X103.06 Y100.792 E7.36807
G1 X102.311 Y101.295 E7.41759
G1 X101.629 Y101.84 E7.4655
G1 X100.984 Y102.446 E7.51407
G0 F6000 X100.667 Y102.141
G1 F1200 X100.051 Y102.821 E7.56442
G1 X99.502 Y103.539 E7.61402
G1 X99.001 Y104.319 E7.6649
G1 X98.57 Y105.124 E7.71501
G1 X98.203 Y105.972 E7.76572
G1 X97.913 Y106.832 E7.81552
G1 X97.69 Y107.72 E7.86577
G1 X97.541 Y108.627 E7.91621
G1 X97.467 Y109.534 E7.96615
G1 X97.467 Y110.466 E8.0173
G1 X97.541 Y111.374 E8.0673
G1 X97.689 Y112.276 E8.11746
G1 X97.913 Y113.167 E8.16788
G1 X98.204 Y114.029 E8.21781
G1 X98.57 Y114.876 E8.26844
G1 X99.001 Y115.681 E8.31856
G1 X99.502 Y116.461 E8.36943
G1 X100.051 Y117.179 E8.41903
G1 X100.673 Y117.866 E8.46989
G1 X101.344 Y118.497 E8.52044
G1 X102.047 Y119.058 E8.5698
G1 X102.824 Y119.58 E8.62117
G1 X103.623 Y120.026 E8.67139
G1 X104.441 Y120.399 E8.72072
G1 X105.33 Y120.719 E8.77258
G1 X106.217 Y120.96 E8.82302
G1 X107.086 Y121.119 E8.8715
G1 X108.012 Y121.213 E8.92258
G1 X108.926 Y121.231 E8.97275
G1 X109.849 Y121.173 E9.0235
G1 X110.737 Y121.045 E9.07274
G1 X111.654 Y120.836 E9.12435
G1 X112.524 Y120.561 E9.17443
G1 X113.374 Y120.211 E9.22487
G1 X114.195 Y119.793 E9.27543
G1 X114.961 Y119.322 E9.32478
G1 X115.702 Y118.777 E9.37526
G1 X116.403 Y118.169 E9.42619
G1 X117.043 Y117.514 E9.47644
G1 X117.627 Y116.807 E9.52677
G1 X118.151 Y116.06 E9.57684
G1 X118.617 Y115.261 E9.6276
G1 X119.135 Y114.182 E9.69329
G1 X119.327 Y113.81 E9.71626
G1 X119.609 Y113.3 E9.74825
G1 X120.012 Y112.653 E9.79008
G1 X120.373 Y112.179 E9.82277
G1 X120.742 Y111.734 E9.8545
G1 X121.259 Y111.174 E9.89633
G1 X121.744 Y110.741 E9.93201
G1 X122.193 Y110.375 E9.9638
G1 X122.703 Y110.002 E9.99847
G1 X122.252 Y109.671 E10.02917
G1 X121.8 Y109.308 E10.06099
G1 X121.232 Y108.8 E10.10281
G1 X120.795 Y108.326 E10.13819
G1 X120.419 Y107.88 E10.1702
G1 X119.96 Y107.273 E10.21197
G1 X119.622 Y106.725 E10.2473
G1 X119.335 Y106.208 E10.27975
G1 X119.137 Y105.824 E10.30346
G1 X118.616 Y104.739 E10.36951
G1 X118.144 Y103.928 E10.42101
G1 X117.626 Y103.19 E10.47049
G1 X117.049 Y102.492 E10.52019
G1 X116.402 Y101.83 E10.57099
G1 X115.696 Y101.218 E10.62227
G1 X114.967 Y100.682 E10.67192
G1 X114.195 Y100.207 E10.72167
G1 X113.375 Y99.79 E10.77215
G1 X112.53 Y99.443 E10.82228
G1 X111.633 Y99.158 E10.87393
G1 X110.741 Y98.953 E10.92416
G1 X109.859 Y98.827 E10.97306
G1 X108.926 Y98.769 E11.02436
G1 X108.012 Y98.787 E11.07453
G1 X107.1 Y98.88 E11.12484
G1 X106.213 Y99.044 E11.17434
G1 X105.321 Y99.284 E11.22503
G1 X104.441 Y99.601 E11.27637
G1 X103.626 Y99.973 E11.32553
G1 X102.821 Y100.422 E11.37612
G1 X102.05 Y100.939 E11.42706
G1 X101.35 Y101.498 E11.47622
G1 X100.667 Y102.141 E11.5277
G0 F6000 X100.356 Y101.828
G1 F1200 X99.719 Y102.531 E11.57976
G1 X99.132 Y103.299 E11.63281
G1 X98.627 Y104.085 E11.68408
G1 X98.171 Y104.939 E11.73721
G1 X97.792 Y105.813 E11.78949
G1 X97.494 Y106.696 E11.84064
G1 X97.258 Y107.637 E11.89388
G1 X97.103 Y108.582 E11.94643
G1 X97.027 Y109.511 E11.99758
G1 X97.027 Y110.49 E12.05131
G1 X97.103 Y111.419 E12.10246
G1 X97.259 Y112.371 E12.15541
G1 X97.49 Y113.287 E12.20725
G1 X97.795 Y114.192 E12.25966
G1 X98.171 Y115.061 E12.31162
G1 X98.627 Y115.915 E12.36475
G1 X99.132 Y116.701 E12.41602
G1 X99.719 Y117.469 E12.46907
G1 X100.356 Y118.172 E12.52113
G1 X101.052 Y118.826 E12.57355
G1 X101.787 Y119.413 E12.62517
G1 X102.599 Y119.958 E12.67884
G1 X103.422 Y120.418 E12.73058
G1 X104.276 Y120.807 E12.78208
G1 X105.19 Y121.136 E12.83539
G1 X106.118 Y121.388 E12.88816
G1 X107.037 Y121.556 E12.93943
G1 X107.984 Y121.652 E12.99167
G1 X108.933 Y121.671 E13.04376
G1 X109.89 Y121.611 E13.09638
G1 X110.823 Y121.476 E13.14812
G1 X111.764 Y121.262 E13.20108
G1 X112.682 Y120.972 E13.25391
G1 X113.55 Y120.614 E13.30544
G1 X114.414 Y120.176 E13.3586
G1 X115.208 Y119.686 E13.4098
G1 X115.986 Y119.114 E13.46279
G1 X116.702 Y118.493 E13.51481
G1 X117.375 Y117.804 E13.56766
G1 X117.972 Y117.083 E13.61904
G1 X118.521 Y116.3 E13.67152
G1 X119 Y115.478 E13.72373
G1 X119.531 Y114.372 E13.79106
G1 X119.712 Y114.023 E13.81263
G1 X119.994 Y113.513 E13.84461
G1 X120.385 Y112.887 E13.88512
G1 X120.712 Y112.46 E13.91463
G1 X121.081 Y112.015 E13.94636
G1 X121.583 Y111.473 E13.9869
G1 X122.022 Y111.082 E14.01916
G1 X122.471 Y110.716 E14.05096
G1 X123.068 Y110.281 E14.09149
G1 X123.545 Y109.999 E14.1219
G1 X122.993 Y109.67 E14.15717
G1 X122.528 Y109.327 E14.18888
G1 X122.076 Y108.964 E14.22069
G1 X121.526 Y108.472 E14.26119
G1 X121.132 Y108.043 E14.29316
G1 X120.756 Y107.597 E14.32517
G1 X120.311 Y107.007 E14.36573
G1 X120.007 Y106.511 E14.39765
G1 X119.72 Y105.994 E14.4301
G1 X119.534 Y105.633 E14.45239
G1 X119.006 Y104.533 E14.51935
G1 X118.521 Y103.701 E14.5722
G1 X117.974 Y102.921 E14.62448
G1 X117.369 Y102.189 E14.6766
G1 X116.701 Y101.506 E14.72903
G1 X115.987 Y100.887 E14.78089
G1 X115.206 Y100.313 E14.83408
G1 X114.414 Y99.824 E14.88516
G1 X113.555 Y99.388 E14.93803
G1 X112.684 Y99.031 E14.98969
G1 X111.741 Y98.732 E15.04398
G1 X110.832 Y98.522 E15.09518
G1 X109.897 Y98.389 E15.14701
G1 X108.933 Y98.329 E15.20001
G1 X107.984 Y98.348 E15.2521
G1 X107.036 Y98.444 E15.30439
G1 X106.12 Y98.613 E15.35551
G1 X105.189 Y98.863 E15.40841
G1 X104.276 Y99.192 E15.46167
G1 X103.415 Y99.586 E15.51364
G1 X102.605 Y100.038 E15.56454
G1 X101.788 Y100.586 E15.61853
G1 X101.053 Y101.173 E15.67015
G1 X100.356 Y101.828 E15.72264
G0 F6000 X100.039 Y101.523
G1 F1200 X99.377 Y102.254 E15.77676
G1 X98.773 Y103.043 E15.83129
G1 X98.251 Y103.856 E15.88432
G1 X97.772 Y104.753 E15.94012
G1 X97.383 Y105.651 E15.99383
G1 X97.07 Y106.579 E16.04757
G1 X96.828 Y107.54 E16.10196
G1 X96.667 Y108.523 E16.15662
G1 X96.587 Y109.5 E16.21042
G1 X96.587 Y110.501 E16.26536
G1 X96.667 Y111.476 E16.31904
G1 X96.828 Y112.457 E16.3736
G1 X97.07 Y113.42 E16.42809
G1 X97.384 Y114.35 E16.48196
G1 X97.772 Y115.247 E16.53559
G1 X98.248 Y116.14 E16.59113
G1 X98.773 Y116.957 E16.64442
G1 X99.377 Y117.746 E16.69895
G1 X100.035 Y118.473 E16.75277
G1 X100.768 Y119.162 E16.80797
G1 X101.538 Y119.777 E16.86206
G1 X102.363 Y120.331 E16.91659
G1 X103.212 Y120.805 E16.96995
G1 X104.116 Y121.217 E17.02447
G1 X105.064 Y121.559 E17.07978
G1 X106.018 Y121.818 E17.13403
G1 X106.973 Y121.992 E17.1873
G1 X107.956 Y122.092 E17.24153
G1 X108.951 Y122.112 E17.29614
G1 X109.932 Y122.05 E17.35009
G1 X110.898 Y121.911 E17.40365
G1 X111.885 Y121.686 E17.4592
G1 X112.826 Y121.388 E17.51337
G1 X113.735 Y121.014 E17.56732
G1 X114.624 Y120.562 E17.62205
G1 X115.456 Y120.05 E17.67566
G1 X116.257 Y119.46 E17.73025
G1 X117.007 Y118.811 E17.78469
G1 X117.701 Y118.1 E17.83921
G1 X118.324 Y117.346 E17.89289
G1 X118.889 Y116.541 E17.94686
G1 X119.395 Y115.674 E18.00195
G1 X119.928 Y114.563 E18.06958
G1 X120.097 Y114.236 E18.08978
G1 X120.379 Y113.726 E18.12176
G1 X120.759 Y113.121 E18.16097
G1 X121.051 Y112.741 E18.18727
G1 X121.42 Y112.296 E18.21899
G1 X121.906 Y111.772 E18.25821
G1 X122.3 Y111.423 E18.2871
G1 X122.749 Y111.057 E18.31889
G1 X123.327 Y110.637 E18.3581
G1 X123.775 Y110.374 E18.38661
G1 X124.292 Y110.098 E18.41877
G1 X124.5 Y110.001 E18.43136
G1 X124.35 Y109.931 E18.44045
G1 X123.832 Y109.659 E18.47256
G1 X123.219 Y109.292 E18.51177
G1 X122.803 Y108.984 E18.54017
G1 X122.351 Y108.621 E18.57199
G1 X121.82 Y108.144 E18.61116
G1 X121.468 Y107.759 E18.63979
G1 X121.092 Y107.313 E18.6718
G1 X120.663 Y106.742 E18.711
G1 X120.392 Y106.298 E18.73954
G1 X120.105 Y105.781 E18.77199
G1 X119.93 Y105.443 E18.79288
G1 X119.39 Y104.317 E18.86141
G1 X118.892 Y103.464 E18.91562
G1 X118.327 Y102.658 E18.96964
G1 X117.695 Y101.894 E19.02405
G1 X117.006 Y101.188 E19.07819
G1 X116.251 Y100.534 E19.13301
G1 X115.463 Y99.954 E19.1867
G1 X114.624 Y99.438 E19.24076
G1 X113.74 Y98.989 E19.29517
G1 X112.827 Y98.614 E19.34934
G1 X111.872 Y98.311 E19.40432
G1 X110.9 Y98.087 E19.45906
G1 X109.937 Y97.95 E19.51244
G1 X108.951 Y97.888 E19.56666
G1 X107.956 Y97.908 E19.62128
G1 X106.972 Y98.008 E19.67555
G1 X106.026 Y98.183 E19.72835
G1 X105.057 Y98.443 E19.78341
G1 X104.116 Y98.782 E19.8383
G1 X103.214 Y99.194 E19.89272
G1 X102.369 Y99.666 E19.94584
G1 X101.525 Y100.232 E20.00161
G1 X100.775 Y100.831 E20.05428
G1 X100.039 Y101.523 E20.10972
G0 F6000 X99.728 Y101.211
G1 F1200 X99.039 Y101.971 E20.16602
G1 X98.415 Y102.788 E20.22244
G1 X97.867 Y103.64 E20.27803
G1 X97.377 Y104.558 E20.33514
G1 X96.971 Y105.496 E20.39123
G1 X96.647 Y106.455 E20.44678
G1 X96.395 Y107.457 E20.50348
G1 X96.23 Y108.466 E20.55959
G1 X96.147 Y109.476 E20.61521
G1 X96.147 Y110.525 E20.67277
G1 X96.229 Y111.533 E20.72828
G1 X96.395 Y112.54 E20.78428
G1 X96.647 Y113.544 E20.84109
G1 X96.971 Y114.505 E20.89675
G1 X97.377 Y115.442 E20.95279
G1 X97.867 Y116.36 E21.0099
G1 X98.415 Y117.212 E21.06549
G1 X99.039 Y118.029 E21.12191
G1 X99.728 Y118.789 E21.1782
G1 X100.477 Y119.493 E21.23462
G1 X101.27 Y120.127 E21.29033
G1 X102.138 Y120.71 E21.34772
G1 X103.021 Y121.202 E21.40319
G1 X103.941 Y121.622 E21.45869
G1 X104.924 Y121.976 E21.51603
G1 X105.93 Y122.249 E21.57323
G1 X106.901 Y122.427 E21.62741
G1 X107.939 Y122.532 E21.68466
G1 X108.959 Y122.552 E21.74065
G1 X109.973 Y122.489 E21.79641
G1 X110.982 Y122.343 E21.85236
G1 X111.994 Y122.112 E21.90932
G1 X112.987 Y121.798 E21.96648
G1 X113.911 Y121.418 E22.02131
G1 X114.848 Y120.942 E22.07898
G1 X115.705 Y120.414 E22.13422
G1 X116.529 Y119.808 E22.19036
G1 X117.305 Y119.135 E22.24673
G1 X118.027 Y118.396 E22.30343
G1 X118.677 Y117.61 E22.3594
G1 X119.261 Y116.778 E22.41519
G1 X119.784 Y115.88 E22.47222
G1 X120.325 Y114.753 E22.54082
G1 X120.482 Y114.449 E22.5596
G1 X120.764 Y113.939 E22.59158
G1 X121.132 Y113.356 E22.62942
G1 X121.39 Y113.021 E22.65262
G1 X121.759 Y112.576 E22.68435
G1 X122.228 Y112.072 E22.72213
G1 X122.578 Y111.764 E22.74771
G1 X123.027 Y111.398 E22.7795
G1 X123.585 Y110.994 E22.81731
G1 X123.983 Y110.762 E22.84259
G1 X124.5 Y110.486 E22.87476
G1 X125.125 Y110.197 E22.91254
G1 X125.583 Y110.039 E22.93913
G1 X125.709 Y110.001 E22.94636
G1 X125.645 Y109.982 E22.95002
G1 X124.996 Y109.75 E22.98784
G1 X124.554 Y109.541 E23.01467
G1 X124.036 Y109.269 E23.04678
G1 X123.446 Y108.914 E23.08457
G1 X123.079 Y108.641 E23.10967
G1 X122.627 Y108.278 E23.14149
G1 X122.115 Y107.816 E23.17933
G1 X121.805 Y107.476 E23.20458
G1 X121.429 Y107.03 E23.2366
